svg/react-native.svg

<svg viewBox="0 0 20 20" xmlns="http://www.w3.org/2000/svg">
<rect width="100%" height="100%" fill="#61DAFB"/>
<path d="M11.5154 9.99277C11.5154 10.8322 10.837 11.5128 10.0001 11.5128C9.16331 11.5128 8.48493 10.8322 8.48493 9.99277C8.48493 9.15329 9.16331 8.47276 10.0001 8.47276C10.837 8.47276 11.5154 9.15329 11.5154 9.99277Z" fill="white"/>
<path fill-rule="evenodd" clip-rule="evenodd" d="M9.99999 4.27283C9.75159 4.03055 9.50409 3.80883 9.25956 3.60945C8.62798 3.09452 8.00042 2.71576 7.41446 2.5256C6.82855 2.33545 6.2433 2.32256 5.75 2.60828C5.25669 2.89399 4.97519 3.40887 4.84639 4.01297C4.71757 4.61712 4.73077 5.35169 4.85952 6.15785C4.90937 6.46998 4.97704 6.79586 5.06199 7.1328C4.72864 7.22747 4.41348 7.33162 4.11909 7.44438C3.35876 7.7356 2.71801 8.09142 2.26086 8.50541C1.80375 8.91935 1.5 9.42135 1.5 9.99278C1.5 10.5642 1.80375 11.0662 2.26086 11.4801C2.71801 11.8941 3.35876 12.2499 4.11909 12.5412C4.41348 12.6539 4.72864 12.7581 5.06199 12.8527C4.97704 13.1897 4.90937 13.5156 4.85952 13.8277C4.73077 14.6339 4.71757 15.3684 4.84639 15.9726C4.97519 16.5767 5.25669 17.0916 5.75 17.3773C6.2433 17.663 6.82855 17.6501 7.41446 17.4599C8.00042 17.2698 8.62798 16.891 9.25956 16.3761C9.50409 16.1767 9.75159 15.955 9.99999 15.7127C10.2484 15.955 10.4959 16.1767 10.7404 16.3761C11.372 16.891 11.9996 17.2698 12.5855 17.46C13.1714 17.6501 13.7567 17.663 14.25 17.3773C14.7433 17.0916 15.0248 16.5767 15.1536 15.9726C15.2824 15.3684 15.2692 14.6339 15.1405 13.8277C15.0906 13.5156 15.0229 13.1897 14.938 12.8528C15.2714 12.7581 15.5865 12.6539 15.8809 12.5412C16.6412 12.2499 17.282 11.8941 17.7391 11.4801C18.1963 11.0662 18.5 10.5642 18.5 9.99278C18.5 9.42135 18.1963 8.91935 17.7391 8.50541C17.282 8.09142 16.6412 7.7356 15.8809 7.44438C15.5865 7.33162 15.2714 7.22746 14.938 7.1328C15.0229 6.79586 15.0906 6.46997 15.1405 6.15784C15.2692 5.35168 15.2824 4.6171 15.1536 4.01295C15.0248 3.40886 14.7433 2.89398 14.25 2.60826C13.7567 2.32255 13.1714 2.33544 12.5855 2.52559C11.9996 2.71575 11.372 3.09451 10.7404 3.60944C10.4959 3.80882 10.2484 4.03055 9.99999 4.27283ZM13.8804 3.2504C14.1295 3.39466 14.3278 3.6847 14.4308 4.16804C14.5339 4.65133 14.531 5.28669 14.4106 6.04054C14.3644 6.33018 14.3013 6.63434 14.2216 6.95041C13.5223 6.79164 12.7602 6.67156 11.9545 6.59683C11.4871 5.93423 11.0024 5.33214 10.5156 4.80403C10.7487 4.57677 10.9797 4.36984 11.2066 4.18484C11.7972 3.70332 12.3443 3.38318 12.813 3.23106C13.2818 3.07892 13.6313 3.10613 13.8804 3.2504ZM9.48433 4.80403C9.25131 4.57678 9.02029 4.36985 8.79338 4.18485C8.20279 3.70333 7.65569 3.38319 7.18695 3.23107C6.71816 3.07893 6.36864 3.10614 6.11956 3.25041C5.87048 3.39467 5.67223 3.68472 5.56917 4.16805C5.46613 4.65134 5.46895 5.28671 5.58935 6.04055C5.6356 6.33018 5.69873 6.63435 5.77841 6.95042C6.47768 6.79164 7.23983 6.67156 8.04552 6.59683C8.51289 5.93424 8.99762 5.33215 9.48433 4.80403ZM14.0194 7.6648C13.5421 7.55781 13.0313 7.46907 12.4941 7.40145C12.6694 7.67634 12.8411 7.95956 13.0085 8.25033C13.1758 8.54109 13.3344 8.83193 13.4841 9.12167C13.6944 8.62111 13.8731 8.13304 14.0194 7.6648ZM13.9089 9.99278C14.2473 9.25545 14.5247 8.53328 14.7372 7.84639C15.0499 7.9352 15.3441 8.03244 15.6173 8.13707C16.3283 8.4094 16.8782 8.72463 17.2439 9.05579C17.6096 9.38699 17.7609 9.70425 17.7609 9.99278C17.7609 10.2813 17.6096 10.5986 17.2439 10.9298C16.8782 11.2609 16.3283 11.5762 15.6173 11.8485C15.3441 11.9531 15.0499 12.0503 14.7372 12.1392C14.5247 11.4523 14.2473 10.7301 13.9089 9.99278ZM13.092 9.99277C12.8747 9.54031 12.6333 9.08138 12.3684 8.62106C12.1035 8.16074 11.828 7.72156 11.546 7.30658C11.0467 7.26908 10.5299 7.24934 10 7.24934C9.47014 7.24934 8.95325 7.26908 8.45401 7.30658C8.17202 7.72155 7.89653 8.16073 7.6316 8.62105C7.36667 9.08137 7.12527 9.5403 6.90803 9.99277C7.12527 10.4452 7.36667 10.9042 7.6316 11.3645C7.89653 11.8248 8.17202 12.264 8.45401 12.679C8.95325 12.7165 9.47014 12.7362 10 12.7362C10.5299 12.7362 11.0467 12.7165 11.546 12.679C11.828 12.264 12.1035 11.8248 12.3684 11.3645C12.6333 10.9042 12.8747 10.4452 13.092 9.99277ZM12.4941 12.5841C12.6694 12.3092 12.8411 12.026 13.0085 11.7352C13.1758 11.4445 13.3344 11.1536 13.4841 10.8639C13.6944 11.3644 13.8731 11.8525 14.0194 12.3208C13.5421 12.4277 13.0313 12.5165 12.4941 12.5841ZM10.99 13.4552C10.6651 13.4701 10.3347 13.4777 10 13.4777C9.66531 13.4777 9.33492 13.4701 9.00995 13.4552C9.33696 13.8881 9.66893 14.2875 9.99999 14.6487C10.331 14.2875 10.663 13.8881 10.99 13.4552ZM10.5157 15.1815C11.0024 14.6534 11.4871 14.0513 11.9545 13.3887C12.7602 13.314 13.5223 13.1939 14.2216 13.0351C14.3013 13.3512 14.3644 13.6554 14.4106 13.945C14.531 14.6989 14.5339 15.3342 14.4308 15.8175C14.3278 16.3008 14.1295 16.5909 13.8804 16.7352C13.6313 16.8794 13.2818 16.9066 12.813 16.7545C12.3443 16.6024 11.7972 16.2822 11.2066 15.8007C10.9797 15.6157 10.7487 15.4088 10.5157 15.1815ZM9.48433 15.1815C8.99762 14.6534 8.51289 14.0513 8.04552 13.3887C7.23983 13.314 6.47768 13.1939 5.77841 13.0351C5.69873 13.3512 5.6356 13.6554 5.58935 13.945C5.46895 14.6988 5.46613 15.3342 5.56917 15.8175C5.67223 16.3008 5.87048 16.5909 6.11956 16.7351C6.36864 16.8794 6.71816 16.9066 7.18695 16.7545C7.65569 16.6024 8.20279 16.2822 8.79338 15.8007C9.02029 15.6157 9.25131 15.4088 9.48433 15.1815ZM5.98054 12.3207C6.45793 12.4277 6.96865 12.5165 7.50591 12.5841C7.33061 12.3092 7.15884 12.026 6.9915 11.7352C6.82415 11.4445 6.66554 11.1536 6.51587 10.8639C6.30562 11.3644 6.12687 11.8525 5.98054 12.3207ZM6.51587 9.12167C6.66554 8.83192 6.82415 8.54108 6.9915 8.25032C7.15884 7.95956 7.33061 7.67634 7.50591 7.40145C6.96865 7.46907 6.45793 7.55781 5.98054 7.6648C6.12687 8.13304 6.30562 8.62111 6.51587 9.12167ZM6.09106 9.99277C5.75273 10.7301 5.47531 11.4523 5.26275 12.1392C4.95005 12.0503 4.65591 11.9531 4.38274 11.8485C3.67175 11.5762 3.12183 11.2609 2.75613 10.9298C2.3904 10.5986 2.23913 10.2813 2.23913 9.99278C2.23913 9.70425 2.3904 9.38699 2.75613 9.05579C3.12183 8.72463 3.67175 8.4094 4.38274 8.13707C4.65591 8.03244 4.95005 7.93521 5.26275 7.84639C5.47531 8.53328 5.75273 9.25545 6.09106 9.99277ZM9.00995 6.53034C9.33492 6.51549 9.66531 6.50787 10 6.50787C10.3347 6.50787 10.6651 6.51549 10.99 6.53034C10.663 6.0974 10.331 5.69807 9.99999 5.33682C9.66893 5.69807 9.33696 6.0974 9.00995 6.53034Z" fill="white"/>
</svg>

<svg xmlns="http://www.w3.org/2000/svg" viewBox="0 0 20 20">
  <rect width="100%" height="100%" fill="#61DAFB"/>
  <path fill="#fff" d="M11.52 10a1.52 1.52 0 1 1-3.04 0 1.52 1.52 0 0 1 3.04 0Z"/>
  <path fill="#fff" fill-rule="evenodd" d="M10 4.27c-.25-.24-.5-.46-.74-.66a5.96 5.96 0 0 0-1.85-1.08c-.58-.2-1.17-.2-1.66.08-.5.28-.77.8-.9 1.4a6 6 0 0 0 .01 2.15c.05.31.12.64.2.97-.33.1-.65.2-.94.31-.76.3-1.4.65-1.86 1.07-.46.4-.76.91-.76 1.48s.3 1.08.76 1.49c.46.41 1.1.77 1.86 1.06.3.11.6.22.94.31-.08.34-.15.67-.2.98a6 6 0 0 0-.01 2.14c.13.6.4 1.12.9 1.4.5.3 1.08.28 1.66.09a5.96 5.96 0 0 0 1.85-1.08c.24-.2.5-.42.74-.67.25.24.5.47.74.67.63.51 1.26.89 1.85 1.08.58.19 1.17.2 1.66-.08.5-.29.77-.8.9-1.4a6 6 0 0 0-.01-2.15 11.3 11.3 0 0 0-.2-.98l.94-.3c.76-.3 1.4-.66 1.86-1.07.46-.41.76-.92.76-1.49s-.3-1.07-.76-1.48a5.96 5.96 0 0 0-1.86-1.07c-.3-.1-.6-.21-.94-.3.08-.34.15-.67.2-.98A6 6 0 0 0 15.15 4c-.13-.6-.4-1.12-.9-1.4-.5-.29-1.08-.27-1.66-.08-.59.19-1.22.56-1.85 1.08-.24.2-.5.42-.74.66Zm3.88-1.02c.25.14.45.43.55.92.1.48.1 1.12-.02 1.87-.05.29-.1.6-.19.91-.7-.16-1.46-.28-2.27-.35-.46-.67-.95-1.27-1.43-1.8.23-.22.46-.43.69-.62.59-.48 1.13-.8 1.6-.95.47-.15.82-.12 1.07.02ZM9.48 4.8c-.23-.22-.46-.43-.69-.62-.59-.48-1.13-.8-1.6-.95-.47-.15-.82-.12-1.07.02-.25.14-.45.43-.55.92-.1.48-.1 1.12.02 1.87.05.29.1.6.19.91.7-.16 1.46-.28 2.27-.35.46-.67.95-1.27 1.43-1.8Zm4.54 2.86c-.48-.1-.99-.2-1.53-.26a21.92 21.92 0 0 1 1 1.72c.2-.5.38-.99.53-1.46ZM13.9 10c.34-.73.61-1.46.83-2.14.31.09.6.18.88.29.7.27 1.26.58 1.62.92.37.33.52.64.52.93 0 .3-.15.6-.52.94-.36.33-.91.65-1.62.92-.28.1-.57.2-.88.29-.22-.69-.5-1.41-.83-2.15Zm-.82 0a20.86 20.86 0 0 0-1.54-2.68 20.67 20.67 0 0 0-3.1 0 20.81 20.81 0 0 0-1.54 2.68 20.82 20.82 0 0 0 1.54 2.69 20.67 20.67 0 0 0 3.1 0 20.8 20.8 0 0 0 1.54-2.69Zm-.6 2.6a21.9 21.9 0 0 0 1-1.73c.2.5.38 1 .53 1.46-.48.1-.99.2-1.53.26Zm-1.5.87a21.62 21.62 0 0 1-1.98 0c.33.43.66.83.99 1.19.33-.36.66-.76.99-1.2Zm-.47 1.72c.48-.53.97-1.13 1.43-1.8.81-.07 1.57-.19 2.27-.34.08.31.14.62.2.9.11.76.11 1.4.01 1.88s-.3.77-.55.92c-.25.14-.6.17-1.07.01a5.24 5.24 0 0 1-1.6-.95c-.23-.18-.46-.4-.7-.62Zm-1.04 0c-.48-.53-.97-1.13-1.43-1.8-.81-.07-1.57-.19-2.27-.34-.08.31-.14.62-.2.9a5.28 5.28 0 0 0-.01 1.88c.1.48.3.77.55.92.25.14.6.17 1.07.01a5.24 5.24 0 0 0 1.6-.95c.23-.18.46-.4.7-.62Zm-3.5-2.86c.48.1.99.2 1.53.26a21.83 21.83 0 0 1-1-1.72c-.2.5-.38 1-.53 1.46Zm.54-3.2A21.85 21.85 0 0 1 7.5 7.4c-.54.07-1.05.16-1.53.26.15.47.33.96.54 1.46Zm-.43.87a17.8 17.8 0 0 0-.83 2.15c-.31-.09-.6-.19-.88-.3a5.24 5.24 0 0 1-1.62-.91c-.37-.33-.52-.65-.52-.94 0-.29.15-.6.52-.93.36-.34.91-.65 1.62-.92l.88-.3c.22.7.5 1.42.83 2.15Zm2.92-3.46a21.7 21.7 0 0 1 1.98 0 16.4 16.4 0 0 0-.99-1.2c-.33.37-.66.77-.99 1.2Z" clip-rule="evenodd"/>
</svg>
